!!!COM: Bach, Johann Sebastian
!!!OTL: Fuga
!!!OMV: 2
!!!SCT: BWV 543
!!!SCA: Thematisches-systematisches Verzeichnis der musikalischen Werke von Johann Sebastian Bach (Schmieder 1990)
**kern	**kern	**kern	**kern
*MM60	*MM60	*MM60	*MM60
*k[]	*k[]	*k[]	*k[]
*M6/8	*M6/8	*M6/8	*M6/8
*tb64	*tb64	*tb64	*tb64
=1	=1	=1	=1
2.r	2.r	2.r	8a
.	.	.	16cc
.	.	.	16b
.	.	.	16cc
.	.	.	16a
.	.	.	8b
.	.	.	16e
.	.	.	16b
.	.	.	16ee
.	.	.	16b
=2	=2	=2	=2
2.r	2.r	2.r	8cc
.	.	.	8a
.	.	.	8ee
.	.	.	16ff
.	.	.	16ee
.	.	.	16ff
.	.	.	16dd
.	.	.	16ff
.	.	.	16cc
=3	=3	=3	=3
2.r	2.r	2.r	16ff
.	.	.	16dd
.	.	.	16ff
.	.	.	16b
.	.	.	16ff
.	.	.	16g
.	.	.	16ee
.	.	.	16dd
.	.	.	16ee
.	.	.	16cc
.	.	.	16ee
.	.	.	16b
=4	=4	=4	=4
2.r	2.r	2.r	16ee
.	.	.	16cc
.	.	.	16ee
.	.	.	16a
.	.	.	16ee
.	.	.	16f
.	.	.	16dd
.	.	.	16cc
.	.	.	16dd
.	.	.	16b
.	.	.	16dd
.	.	.	16a
=5	=5	=5	=5
2.r	2.r	2.r	16dd
.	.	.	16b
.	.	.	16dd
.	.	.	16g#
.	.	.	16dd
.	.	.	16e
.	.	.	16cc
.	.	.	16a
.	.	.	16cc
.	.	.	16ee
.	.	.	16aa
.	.	.	16ff#
=6	=6	=6	=6
2.r	2.r	8e	8gg
.	.	16g	[4ee
.	.	16f#	.
.	.	16g	.
.	.	16e	.
.	.	8f#	16ee]
.	.	.	16dd#
.	.	16B	16ee
.	.	16f#	16cc#
.	.	16b	16dd#
.	.	16f#	16ff#
=7	=7	=7	=7
2.r	2.r	8g	[4.bb
.	.	8e	.
.	.	8b	.
.	.	16cc	8bb]
.	.	16b	.
.	.	16cc	16aa
.	.	16a	16gg
.	.	16cc	16ff#
.	.	16g	16ee
=8	=8	=8	=8
2.r	2.r	16cc	[4.aa
.	.	16a	.
.	.	16cc	.
.	.	16f#	.
.	.	16cc	.
.	.	16d	.
.	.	16b	8aa]
.	.	16a	.
.	.	16b	16gg
.	.	16g	16ff#
.	.	16b	16ee
.	.	16f#	16dd
=9	=9	=9	=9
2.r	2.r	16b	[4.gg
.	.	16g	.
.	.	16b	.
.	.	16e	.
.	.	16b	.
.	.	16c	.
.	.	16a	8gg]
.	.	16g	.
.	.	16a	16ff#
.	.	16f#	16ee
.	.	16a	16dd#
.	.	16e	16ee
=10	=10	=10	=10
2.r	2.r	16a	[4.ff#
.	.	16f#	.
.	.	16a	.
.	.	16d#	.
.	.	16a	.
.	.	16B	.
.	.	16g	8ff#]
.	.	16f#	.
.	.	16g	16ee
.	.	16b	16ff#
.	.	16ee	[8gg
.	.	16cc#	.
=11	=11	=11	=11
2.r	2.r	[4.dd	16gg]
.	.	.	16gg
.	.	.	16ff#
.	.	.	16ee
.	.	.	16ff#
.	.	.	16dd
.	.	16dd]	8ee
.	.	16g#	.
.	.	16a	[4aa
.	.	16cc	.
.	.	16ff#	.
.	.	16dd#	.
=12	=12	=12	=12
2.r	2.r	[4.ee	16aa]
.	.	.	16aa
.	.	.	16gg#
.	.	.	16ff#
.	.	.	16gg#
.	.	.	16ee
.	.	16ee]	[4.ccc
.	.	16dd	.
.	.	16cc	.
.	.	16b	.
.	.	16cc	.
.	.	16a	.
=13	=13	=13	=13
2.r	2.r	[4.dd	16ccc]
.	.	.	16ccc
.	.	.	16bb
.	.	.	16aa
.	.	.	16gg
.	.	.	16ff#
.	.	16dd]	[4.ee
.	.	16dd	.
.	.	16cc	.
.	.	16b	.
.	.	16a	.
.	.	16g	.
=14	=14	=14	=14
2.r	2.r	[4.f	16ee]
.	.	.	16ee
.	.	.	16dd
.	.	.	16cc
.	.	.	16b
.	.	.	16a
.	.	16f]	16g#
.	.	16e	16a
.	.	16d	16b
.	.	16e	16cc
.	.	16f#	16dd
.	.	16g#	16b
=15	=15	=15	=15
2.r	8A	[4.a	16cc
.	.	.	16dd
.	16c	.	16ee
.	16B	.	16dd
.	16c	.	16ee
.	16A	.	16ff
.	8B	16a]	[4.dd
.	.	16g#	.
.	16E	16a	.
.	16B	16f#	.
.	16e	16g#	.
.	16B	16b	.
=16	=16	=16	=16
2.r	8c	8e	16dd]
.	.	.	16dd
.	8A	16cc	[4ee
.	.	16b	.
.	8e	16a	.
.	.	16g#	.
.	16f	4.a	8ee]
.	16e	.	.
.	16f	.	16dd
.	16d	.	16cc
.	16f	.	16b
.	16c	.	16a
=17	=17	=17	=17
2.r	16f	[4.dd	8aa
.	16d	.	.
.	16f	.	16gg
.	16B	.	16ff
.	16f	.	16ee
.	16G	.	16dd
.	16e	8dd]	[4.gg
.	16d	.	.
.	16e	16cc	.
.	16c	16b	.
.	16e	16a	.
.	16B	16g	.
=18	=18	=18	=18
2.r	16e	[4.cc	8gg]
.	16c	.	.
.	16e	.	16ff
.	16A	.	16ee
.	16e	.	16dd
.	16F	.	16cc
.	16d	8cc]	[4.ff
.	16c	.	.
.	16d	16b	.
.	16B	16a	.
.	16d	16g#	.
.	16A	16a	.
=19	=19	=19	=19
2.r	16d	[4.b	8ff]
.	16B	.	.
.	16d	.	16ee
.	16G#	.	16dd
.	16d	.	16cc
.	16E	.	16dd
.	16c	8b]	4.ee
.	16B	.	.
.	16c	16a	.
.	16G#	16b	.
.	16A	16cc	.
.	16c	16a	.
=20	=20	=20	=20
2.r	16e	[4.cc	16r
.	16B	.	16ee
.	16c	.	16aa
.	16e	.	16gg
.	16a	.	16ff#
.	16f#	.	16ee
.	8.g	16cc]	4.dd
.	.	16cc	.
.	.	16b	.
.	16a	16a	.
.	16g	8b	.
.	16f#	.	.
=21	=21	=21	=21
2.r	8.g	16r	8r
.	.	8.b	.
.	.	.	16ee
.	16d#	.	16ff#
.	16e	8b	[8gg
.	16B	.	.
.	16c#	16a	4.gg_
.	16G	16cc#	.
.	16A	16ee	.
.	16c#	16dd	.
.	16e	16cc#	.
.	16d	16b	.
=22	=22	=22	=22
2.r	16c#	8a	16gg]
.	16e	.	16cc#
.	16a	8b	8dd
.	16g	.	.
.	16f	[8cc#	8ee
.	16e	.	.
.	[4.d	16cc#]	4.ff
.	.	16a	.
.	.	16b	.
.	.	16cc#	.
.	.	16dd	.
.	.	16a	.
=23	=23	=23	=23
2.r	8d]	16g#	4.ee
.	.	16e	.
.	[4c	16a	.
.	.	16b	.
.	.	16cc	.
.	.	16a	.
.	16c]	8f#	4.dd
.	16c	.	.
.	16B	8.g#	.
.	16A	.	.
.	16B	.	.
.	16G#	[16b	.
=24	=24	=24	=24
2.r	8A	16b]	[4.cc
.	.	16b	.
.	8c	16a	.
.	.	16g#	.
.	8A	16a	.
.	.	16e	.
.	[4.d	4.f	16cc]
.	.	.	16cc
.	.	.	16b
.	.	.	16a
.	.	.	16b
.	.	.	16dd
=25	=25	=25	=25
2.r	16d]	4e	8g#
.	16d	.	.
.	16c	.	[4a
.	16B	.	.
.	16c	8f#	.
.	16A	.	.
.	8B	8d#	16a]
.	.	.	16a
.	8c	[4e	16g
.	.	.	16f#
.	8G	.	16g
.	.	.	16e
=26	=26	=26	=26
4r	8A	16e]	8.cc
.	.	16e	.
.	[4B	4d#	.
.	.	.	16cc
8r	.	.	16b
.	.	.	16a
8E	16B]	4e	4g
.	16B	.	.
16G	16e	.	.
16F#	16d#	.	.
16G	[8e	16r	8r
16E	.	16g	.
=27	=27	=27	=27
8F#	8e]	16a	8r
.	.	16g	.
8BB	16d#	[4a	8r
.	16c#	.	.
16B	[8d#	.	8ff#
16F#	.	.	.
8G	8d#]	8a]	[4.bb
8E	8e	16g	.
.	.	16f#	.
8B	8d	16g	.
.	.	16b	.
=28	=28	=28	=28
16c	8e	[4.ee	8bb]
16B	.	.	.
16c	8f#	.	16aa
16A	.	.	16gg
16c	8g	.	16ff#
16G	.	.	16ee
16c	4a	8ee]	[4.aa
16A	.	.	.
16c	.	16dd	.
16F#	.	16cc	.
16c	8r	16b	.
16D	.	16a	.
=29	=29	=29	=29
16B	8d	[4.dd	8aa]
16A	.	.	.
16B	8e	.	16gg
16G	.	.	16ff#
16B	8f#	.	16ee
16F#	.	.	16dd
16B	4g	8dd]	[4.gg
16G	.	.	.
16B	.	16cc	.
16E	.	16b	.
16B	8r	16a	.
16C	.	16g	.
=30	=30	=30	=30
16A	8e	[4.cc	8gg]
16G	.	.	.
16A	16d	.	16ff#
16F#	16c	.	16ee
16A	16B	.	16dd
16E	16A	.	16cc
16A	[4.d#	8cc]	[4.ff#
16F#	.	.	.
16A	.	16b	.
16D#	.	16a	.
16A	.	16g	.
16BB	.	16f#	.
=31	=31	=31	=31
16G	8d]	(4.b	8ff#]
16F#	.	.	.
16G	4e	.	16ee
16D#	.	.	16ff#
16E	.	.	[8gg
16BB	.	.	.
16C#	8e	8a)	8gg]
16BB	.	.	.
16C#	8e	8g	8a
16AA	.	.	.
16E	8e	8g	8cc#
16C#	.	.	.
=32	=32	=32	=32
16F	4.d	4.a	16dd
16E	.	.	16cc#
16F	.	.	16dd
16C#	.	.	16ee
16D	.	.	[8ff
16AA	.	.	.
16BB	8d	8g	8ff]
16AA	.	.	.
16BB	8d	8f	8g
16GG	.	.	.
16D	8d	8f	8b
16BB	.	.	.
=33	=33	=33	=33
16E	4.c	4g	16cc
16D	.	.	16b
16E	.	.	16cc
16BB	.	.	16dd
16C	.	8cc	[8ee
16GG#	.	.	.
16AA	4.c	[4.f	16ee]
16GG	.	.	16b
16AA	.	.	16cc
16FF	.	.	16dd
16C	.	.	16ee
16AA	.	.	16cc
=34	=34	=34	=34
16D	[4.B	4.f_	16ff
16C	.	.	16gg
16D	.	.	16ff
16BB	.	.	16ee
16F	.	.	16dd
16D	.	.	16cc
16G#	4.B]	8f]	16b
16F#	.	.	16a
16G#	.	[4e	16b
16E	.	.	16cc
16B	.	.	16dd
16G#	.	.	16b
=35	=35	=35	=35
8A	2.r	16e]	16cc
.	.	16d	16b
8AA	.	16c	16a
.	.	16e	16cc
8r	.	16d	16b
.	.	16e	16cc
8r	.	16f	16dd
.	.	16e	16cc
8D	.	16f	16dd
.	.	16g	16ee
8F	.	16e	16cc
.	.	16f	16dd
=36	=36	=36	=36
8G	2.r	16d	16b
.	.	16c	16a
8GG	.	16B	16g
.	.	16d	16b
8r	.	16c	16a
.	.	16d	16b
8r	.	16e	16cc
.	.	16d	16b
8C	.	16e	16cc
.	.	16f	16dd
8E	.	16d	16b
.	.	16e	16cc
=37	=37	=37	=37
8F	2.r	16c	16a
.	.	16B	16g#
8A	.	16c	16a
.	.	16d	16b
8F	.	16B	16g#
.	.	16c	16a
8D	.	16d	16b
.	.	16c	16a
8BB	.	16d	16b
.	.	16e	16cc
8D	.	16c	16a
.	.	16d	16b
=38	=38	=38	=38
8E	2.r	4.B	16g#
.	.	.	16a
8F#	.	.	16b
.	.	.	16cc
8E	.	.	16dd
.	.	.	16b
8C	.	16A	[4.ee
.	.	16B	.
8AA	.	16c	.
.	.	16d	.
8A	.	16e	.
.	.	16c	.
=39	=39	=39	=39
16A	2.r	4f	8ee]
16c	.	.	.
16B	.	.	[4dd
16c	.	.	.
16A	.	8f	.
16B	.	.	.
16G#	.	4e	8dd]
16B	.	.	.
16A	.	.	[4cc
16B	.	.	.
16G#	.	8e	.
16A	.	.	.
=40	=40	=40	=40
16F#	2.r	4d	8cc]
16A	.	.	.
16G#	.	.	[4b
16A	.	.	.
16F#	.	8d	.
16G#	.	.	.
16A	.	4c	8b]
16E	.	.	.
16F	.	.	[4a
16E	.	.	.
16F	.	8c	.
16C	.	.	.
=41	=41	=41	=41
4D	2.r	8.B	16a]
.	.	.	16g#
.	.	.	[4a
.	.	16c	.
8r	.	16A	.
.	.	16B	.
4E	.	8.c	16a]
.	.	.	16g#
.	.	.	[4a
.	.	16d	.
8r	.	16B	.
.	.	16c	.
=42	=42	=42	=42
4F	2.r	8.d	16a]
.	.	.	16g#
.	.	.	[4a
.	.	16e	.
8r	.	16c	.
.	.	16d	.
4C	.	8.e	16a]
.	.	.	16g#
.	.	.	[4a
.	.	16f	.
8r	.	16d	.
.	.	16e	.
=43	=43	=43	=43
4D	2.r	16f	16a]
.	.	16e	16g#
.	.	16d	8a
.	.	16f	.
8GG#	.	16e	8b
.	.	16d	.
8AA	.	16c	16e
.	.	16d	16a
8E	.	8.B	8.g#T
8EE	.	.	.
.	.	16c	16a
=44	=44	=44	=44
4.AA	2.r	[4.A	8a
.	.	.	16cc
.	.	.	16b
.	.	.	16cc
.	.	.	16a
4.E	.	4A]	8b
.	.	.	16e
.	.	.	16b
.	.	8G#	16ee
.	.	.	16b
=45	=45	=45	=45
8AA	2.r	[4.A	8cc
16C	.	.	8a
16BB	.	.	.
16C	.	.	8ee
16AA	.	.	.
4D	.	4A]	16ff
.	.	.	16ee
.	.	.	16ff
.	.	.	16dd
8AA	.	8A	16ff
.	.	.	16cc
=46	=46	=46	=46
8BB	2.r	[4.G	16ff
.	.	.	16dd
8GG	.	.	16ff
.	.	.	16b
8BB	.	.	16ff
.	.	.	16g
4C	.	4G]	16ee
.	.	.	16dd
.	.	.	16ee
.	.	.	16cc
8r	.	8r	16ee
.	.	.	16b
=47	=47	=47	=47
8AA	2.r	4F	16ee
.	.	.	16cc
8FF	.	.	16ee
.	.	.	16a
8AA	.	[8c	16ee
.	.	.	16f
4BB	.	8c]	16dd
.	.	.	16cc
.	.	16B	16dd
.	.	16A	16b
8r	.	16G#	16dd
.	.	16A	16a
=48	=48	=48	=48
8GG#	2.r	[4.B	16dd
.	.	.	16b
8EE	.	.	16dd
.	.	.	16g#
8GG#	.	.	16dd
.	.	.	16e
4AA	.	8B]	16cc
.	.	.	16a
.	.	8A	16cc
.	.	.	16ee
8r	.	[8c	16aa
.	.	.	16ff#
=49	=49	=49	=49
4E	2.r	8c]	16gg
.	.	.	16ff#
.	.	8B	16gg
.	.	.	16bb
8r	.	8e	16ccc
.	.	.	16aa
4B	.	16d#	8.bb
.	.	16f#	.
.	.	16b	.
.	.	16d#	16ff#
[8G	.	[8e	16gg
.	.	.	16dd#
=50	=50	=50	=50
16G]	2.r	16e]	16ee
16A	.	16a	16ff#
8B	.	8.f#	8.dd#
8BB	.	.	.
.	.	16e	16ee
4E	.	4e	16ee
.	.	.	16b
.	.	.	16cc
.	.	.	16a
8r	.	8r	16b
.	.	.	16f#
=51	=51	=51	=51
4EE	4r	16r	4g
.	.	16d#	.
.	.	16e	.
.	.	16B	.
8r	8r	16c	8r
.	.	16A	.
4r	16r	4B	8g
.	16F#	.	.
.	16G	.	8b
.	16D#	.	.
8r	16E	8G	[8ee
.	16AA#	.	.
=52	=52	=52	=52
2.r	16BB	4.F#	8ee]
.	16D#	.	.
.	16F#	.	16dd#
.	16c	.	16ee
.	16A	.	[8ff#
.	16F#	.	.
.	8G	[4B	16ff#]
.	.	.	16dd#
.	8E	.	16ee
.	.	.	16ff#
.	8B	16B]	[8gg
.	.	16d#	.
=53	=53	=53	=53
2.r	16c	8.e	16gg]
.	16B	.	16gg
.	16c	.	8aa
.	16A	8f#	.
.	16c	.	8aa
.	16G	16e	.
.	16c	16r	8aa
.	16A	8f#	.
.	16c	.	8aa
.	16F#	8d	.
.	16c	.	[8aa
.	16D	16A	.
=54	=54	=54	=54
2.r	16B	8.d	16aa]
.	16A	.	16ff#
.	16B	.	8gg
.	16G	8e	.
.	16B	.	8gg
.	16F#	16d#	.
.	16B	16r	8gg
.	16G	8e	.
.	16B	.	8gg
.	16E	8c	.
.	16g	.	[8gg
.	16c	16G	.
=55	=55	=55	=55
2.r	16a	8c	16gg]
.	16g	.	16ee
.	16a	16r	8ff#
.	16f#	8d#	.
.	16a	.	8ff#
.	16e	16c#	.
.	16a	16r	8ff#
.	16f#	8d#	.
.	16a	.	8ff#
.	16d#	8B	.
.	16a	.	[8ff#
.	16B	16F#	.
=56	=56	=56	=56
2.r	16G	[4.b	8ff#]
.	16F#	.	.
.	16G	.	8ee
.	16A	.	.
.	16B	.	8dd
.	16G	.	.
.	16A	8b]	[4.cc
.	16G	.	.
.	16A	8a	.
.	16B	.	.
.	16c	8g	.
.	16A	.	.
=57	=57	=57	=57
2.r	16d	[4.f#	8cc]
.	16c	.	.
.	16d	.	8a
.	16D	.	.
.	16F#	.	8dd
.	16D	.	.
.	16G	8f#]	[4.b
.	16F#	.	.
.	16G	8d	.
.	16A	.	.
.	16B	8g	.
.	16G	.	.
=58	=58	=58	=58
2.r	16c	[4.e	8b]
.	16B	.	.
.	16c	.	16ee
.	16C	.	16dd
.	16E	.	16cc
.	16C	.	16b
.	16F#	16e]	[4.a
.	16D	16g	.
.	16F#	16f#	.
.	16G	16e	.
.	16A	16d#	.
.	16F#	16e	.
=59	=59	=59	=59
2.r	16B	4.d#	16a]
.	16A	.	16cc
.	16B	.	16b
.	16BB	.	16a
.	16D#	.	16g
.	16BB	.	16f#
.	16E	4e	16g
.	16D#	.	16f#
.	16E	.	16g
.	16F#	.	16a
.	16G	8r	16b
.	16E	.	16g
=60	=60	=60	=60
2.r	16A	2.r	16cc
.	16G#	.	16b
.	16A	.	16cc
.	16AA	.	16dd
.	16C	.	16ee
.	16AA	.	16cc
.	16D	.	[4.ff
.	16C#	.	.
.	16D	.	.
.	16E	.	.
.	16F	.	.
.	16D	.	.
=61	=61	=61	=61
2.r	16G	4r	4.ff]
.	16F#	.	.
.	16G	.	.
.	16A	.	.
.	16B	8r	.
.	16G	.	.
.	8c	16c	16ee
.	.	16d	16dd
.	8B	16e	16cc
.	.	16d	16b
.	8A	16e	[8cc
.	.	16c	.
=62	=62	=62	=62
2.r	4.G	8d	8cc]
.	.	16G	8.bT
.	.	16d	.
.	.	16g	.
.	.	16f	32a
.	.	.	32b
.	4.c	16e	16cc
.	.	16d	16b
.	.	16e	16cc
.	.	16f	16dd
.	.	16g	[8ee
.	.	16e	.
=63	=63	=63	=63
2.r	16F	16a	4.ee]
.	16G	16g	.
.	16F	16a	.
.	16E	16f	.
.	16D	16a	.
.	16C	16e	.
.	8BB	16a	[4.dd
.	.	16f	.
.	8B	16a	.
.	.	16d	.
.	8BB	16a	.
.	.	16B	.
=64	=64	=64	=64
2.r	16E	16g	4.dd]
.	16F	16f	.
.	16E	16g	.
.	16D	16e	.
.	16C	16g	.
.	16BB	16d	.
.	8AA	16g	[4.cc
.	.	16e	.
.	8A	16g	.
.	.	16c	.
.	8AA	16g	.
.	.	16A	.
=65	=65	=65	=65
2.r	16D	16f	4.cc]
.	16E	16e	.
.	16D	16f	.
.	16C	16d	.
.	16BB	16f	.
.	16AA	16c	.
.	8GG	16f	[4.b
.	.	16d	.
.	8G	16f	.
.	.	16B	.
.	8GG	16b	.
.	.	16G	.
=66	=66	=66	=66
2.r	8C	16e	8.b]
.	.	16d	.
.	8c	4e	.
.	.	.	16g
.	8B	.	16cc
.	.	.	16b
.	8A	16r	[4.cc
.	.	16a	.
.	8AA	16e	.
.	.	16c	.
.	8A	16A	.
.	.	16g	.
=67	=67	=67	=67
2.r	8D	16f#	8.cc]
.	.	16e	.
.	8d	4f#	.
.	.	.	16a
.	8c	.	16dd
.	.	.	16cc
.	8B	16r	[4.dd
.	.	16b	.
.	8BB	16f#	.
.	.	16d	.
.	8B	16B	.
.	.	16a	.
=68	=68	=68	=68
2.r	8E	16g	8.dd]
.	.	16f#	.
.	8e	4g	.
.	.	.	16b
.	8d	.	16ee
.	.	.	16dd
.	8c	16r	[4.ee
.	.	16cc	.
.	8C	16g	.
.	.	16e	.
.	8c	16c	.
.	.	16b	.
=69	=69	=69	=69
2.r	8F#	16a	8.ee]
.	.	16g	.
.	8E	[4a	.
.	.	.	16ee
.	8F#	.	16dd
.	.	.	16cc
.	8G	8.a]	16b
.	.	.	16a
.	8F#	.	[4b
.	.	16a	.
.	8G	16g	.
.	.	16f#	.
=70	=70	=70	=70
2.r	8C	16e	8.b]
.	.	16d	.
.	8BB	[4e	.
.	.	.	16b
.	8C	.	16a
.	.	.	16g
.	8D	8.e]	16f#
.	.	.	16e
.	8C	.	4f#
.	.	16e	.
.	8D	16d	.
.	.	16c	.
=71	=71	=71	=71
2.r	4.E	8B	16g
.	.	.	16a
.	.	8G	16b
.	.	.	16a
.	.	[8c	16b
.	.	.	16g
.	4.F#	8c]	16a
.	.	.	16d
.	.	8B	16f#
.	.	.	16a
.	.	8A	16dd
.	.	.	16cc
=72	=72	=72	=72
2.r	[4.G	8G	16b
.	.	.	16g
.	.	8A	16b
.	.	.	16dd
.	.	8B	16gg
.	.	.	16ff
.	8G]	[4.c	16ee
.	.	.	16dd
.	8E	.	16ee
.	.	.	16cc
.	8C	.	16ee
.	.	.	16b
=73	=73	=73	=73
2.r	[4.F#	8c]	16ee
.	.	.	16cc
.	.	8B	16ee
.	.	.	16a
.	.	8A	16ee
.	.	.	16f#
.	8F#]	[4.B	16dd
.	.	.	16cc
.	8D	.	16dd
.	.	.	16b
.	8BB	.	16dd
.	.	.	16a
=74	=74	=74	=74
2.r	[4.E	8B]	16dd
.	.	.	16b
.	.	8A	16dd
.	.	.	16g
.	.	8G	16dd
.	.	.	16e
.	8E]	[4.A	16cc
.	.	.	16b
.	8C	.	16cc
.	.	.	16a
.	8AA	.	16cc
.	.	.	16g
=75	=75	=75	=75
2.r	[4.D	8A]	16cc
.	.	.	16a
.	.	8G	16cc
.	.	.	16f#
.	.	8F#	16cc
.	.	.	16d
.	4.D_	8G	16b
.	.	.	16a
.	.	8F#	16b
.	.	.	16g
.	.	8E	16b
.	.	.	16d
=76	=76	=76	=76
2.r	4.D_	8F#	16a
.	.	.	16g
.	.	8E	16a
.	.	.	16f#
.	.	8F#	16a
.	.	.	16d
.	4.D_	8G	16b
.	.	.	16a
.	.	8F#	16b
.	.	.	16g
.	.	8G	16b
.	.	.	16d
=77	=77	=77	=77
2.r	4.D_	8A	16cc
.	.	.	16a
.	.	8G	16cc
.	.	.	16f#
.	.	8A	16cc
.	.	.	16c
.	4.D_	8B	16dd
.	.	.	16b
.	.	8A	16dd
.	.	.	16g
.	.	8B	16dd
.	.	.	16d
=78	=78	=78	=78
2.r	4.D_	8.c#	16ee
.	.	.	16cc#
.	.	.	16ee
.	.	16d	16b
.	.	16B	16ee
.	.	16c#	16a
.	8D]	16d	16ff
.	.	16e	16ee
.	8r	16f	16dd
.	.	16e	16cc#
.	8r	16f	16dd
.	.	16d	16ff
=79	=79	=79	=79
2.r	2.r	8e	16gg
.	.	.	16ff
.	.	16A	16ee
.	.	16e	16dd
.	.	16a	16ee
.	.	16e	16gg
.	.	8f	16aa
.	.	.	16gg
.	.	8d	16ff
.	.	.	16ee
.	.	8a	16ff
.	.	.	16aa
=80	=80	=80	=80
2.r	2.r	16b-	8dd
.	.	16a	.
.	.	16b-	8ee
.	.	16g	.
.	.	16b-	8ffM
.	.	16f	.
.	.	16b-	4.gg
.	.	16g	.
.	.	16b-	.
.	.	16e	.
.	.	16b-	.
.	.	16c#	.
=81	=81	=81	=81
2.r	2.r	16a	8cc#
.	.	16g	.
.	.	16a	8dd
.	.	16f	.
.	.	16a	8eeM
.	.	16e	.
.	.	16a	[4.ff
.	.	16f	.
.	.	16a	.
.	.	16d	.
.	.	16a	.
.	.	16B	.
=82	=82	=82	=82
2.r	2.r	16g	8ff]
.	.	16f	.
.	.	16g	16ee
.	.	16e	16dd
.	.	16g	16cc#
.	.	16d	16dd
.	.	16g	16ee
.	.	16e	16gg
.	.	16g	16bb-
.	.	16c#	16gg
.	.	16g	16ee
.	.	16A	16cc#
=83	=83	=83	=83
2.r	2.r	8f	16dd
.	.	.	16ff
.	.	8d	16aa
.	.	.	16ff
.	.	8f	16dd
.	.	.	16cc
.	.	16G	16b-
.	.	16B-	16dd
.	.	16d	16gg
.	.	16f	16dd
.	.	16g	16b-
.	.	16f	16g
=84	=84	=84	=84
2.r	2.r	8e	16cc
.	.	.	16ee
.	.	8c	16gg
.	.	.	16ee
.	.	8e	16cc
.	.	.	16b-
.	.	16F	16a
.	.	16A	16cc
.	.	16c	16ff
.	.	16e-	16cc
.	.	16f	16a
.	.	16e-	16f
=85	=85	=85	=85
2.r	2.r	[4.d	16b-
.	.	.	16dd
.	.	.	16ff
.	.	.	16dd
.	.	.	16b-
.	.	.	16a
.	.	8d]	16g#
.	.	.	16b
.	.	16c	16ee
.	.	16B	16cc
.	.	[8c	16a
.	.	.	16g
=86	=86	=86	=86
2.r	2.r	8c]	16f#
.	.	.	16a
.	.	16B	16dd
.	.	16A	16b
.	.	[8B	16g
.	.	.	16f
.	.	8B]	16e
.	.	.	16g
.	.	16A	16cc
.	.	16G#	16a
.	.	[8A	16f
.	.	.	16e
=87	=87	=87	=87
2.r	2.r	8A]	16d
.	.	.	16b
.	.	16G#	16d
.	.	16F#	16b
.	.	8G#	16d
.	.	.	16b
.	.	8A	16c
.	.	.	16a
.	.	8B	16d
.	.	.	16a
.	.	8c	16e
.	.	.	16a
=88	=88	=88	=88
2.r	2.r	4d	16f
.	.	.	16a
.	.	.	16f
.	.	.	16b
.	.	8r	16f
.	.	.	16cc
.	.	8B	16d
.	.	.	16dd
.	.	8c	16e
.	.	.	16dd
.	.	8d	16f
.	.	.	16dd
=89	=89	=89	=89
2.r	2.r	4e	16g
.	.	.	16b
.	.	.	16g
.	.	.	16cc
.	.	8r	16g
.	.	.	16dd
.	.	8c	16e
.	.	.	16ee
.	.	8d	16f
.	.	.	16ee
.	.	8e	16g
.	.	.	16ee
=90	=90	=90	=90
2.r	2.r	4f	16a
.	.	.	16cc
.	.	.	16a
.	.	.	16dd
.	.	8r	16a
.	.	.	16ee
.	.	16d	4ff
.	.	16f	.
.	.	16d	.
.	.	16g	.
.	.	16d	8r
.	.	16a	.
=91	=91	=91	=91
2.r	2.r	16G	8b
.	.	16g	.
.	.	16A	8cc
.	.	16g	.
.	.	16B	8dd
.	.	16g	.
.	.	16c	4ee
.	.	16e	.
.	.	16c	.
.	.	16f	.
.	.	16c	8r
.	.	16g	.
=92	=92	=92	=92
2.r	2.r	16F	8a
.	.	16f	.
.	.	16G	8b
.	.	16f	.
.	.	16A	8cc#
.	.	16f	.
.	.	16B-	8dd
.	.	16d	.
.	.	16B-	8cc#
.	.	16e	.
.	.	16B-	[8dd
.	.	16f	.
=93	=93	=93	=93
2.r	2.r	16G#	8dd]
.	.	16e	.
.	.	16A	16cc
.	.	16e	16b
.	.	16B	16a
.	.	16e	16g#
.	.	16c	8ee
.	.	16e	.
.	.	16c	8a
.	.	16f#	.
.	.	16c	8b
.	.	16g#	.
=94	=94	=94	=94
2.r	2.r	16A	16cc
.	.	16a	16dd
.	.	16g	8.ddT
.	.	16a	.
.	.	16f	.
.	.	16a	32cc
.	.	.	32dd
.	.	16e	[4.ee
.	.	16g#	.
.	.	16e	.
.	.	16a	.
.	.	16e	.
.	.	16b	.
=95	=95	=95	=95
4r	2.r	16c	4.ee_
.	.	16e	.
.	.	16c	.
.	.	16f#	.
8r	.	16c	.
.	.	16g#	.
8AA	.	16c	4.ee_
.	.	16e	.
16C	.	16a	.
16BB	.	16g#	.
16C	.	16a	.
16AA	.	16e	.
=96	=96	=96	=96
8BB	4r	16d	4.ee_
.	.	16a	.
8EE	.	16g#	.
.	.	16f#	.
16E	8r	16g#	.
16BB	.	16b	.
8C	8A	4.e	4.ee_
8AA	16c	.	.
.	16B	.	.
[8A	16c	.	.
.	16A	.	.
=97	=97	=97	=97
8A]	8B	[4.b	4.ee_
4G#	16E	.	.
.	16B	.	.
.	16e	.	.
.	16B	.	.
16A	8c	8b]	4.ee_
16AA	.	.	.
16C	8A	[4a	.
16BB	.	.	.
16C	8e	.	.
16AA	.	.	.
=98	=98	=98	=98
4D	16f	4.a_	4.ee]
.	16e	.	.
.	16f	.	.
.	16d	.	.
8r	16f	.	.
.	16c	.	.
8r	16f	8a]	[4.dd
.	16d	.	.
16BB	16f	[4g	.
16AA	16B	.	.
16BB	16f	.	.
16GG	16G	.	.
=99	=99	=99	=99
4C	16e	4.g_	4.dd]
.	16d	.	.
.	16e	.	.
.	16c	.	.
8r	16e	.	.
.	16B	.	.
8r	16e	8g]	[4.cc
.	16c	.	.
16AA	16e	[4f	.
16GG	16A	.	.
16AA	16e	.	.
16FF	16F	.	.
=100	=100	=100	=100
4BB	16d	4.f_	4.cc]
.	16c	.	.
.	16d	.	.
.	16B	.	.
8r	16d	.	.
.	16A	.	.
8r	16d	8f]	[4.b
.	16B	.	.
16GG#	16d	[4e	.
16FF#	16G#	.	.
16GG#	16d	.	.
16EE	16E	.	.
=101	=101	=101	=101
4AA	16c	4e]	8b]
.	16B	.	.
.	16c	.	8a
.	16A	.	.
8r	16d	8r	8g#
.	16B	.	.
4r	16c	4r	16a
.	16B	.	16g#
.	16c	.	16a
.	16A	.	16cc
8r	16d	8r	16b
.	16G#	.	16dd
=102	=102	=102	=102
4AA	16A	2.r	16cc
.	16G#	.	16b
.	16A	.	16cc
.	16E	.	16a
8r	16G#	.	16dd
.	16E	.	16b
4r	16A	.	16cc
.	16G#	.	16b
.	16A	.	16cc
.	16E	.	16a
8r	16B	.	16dd
.	16E	.	16g#
=103	=103	=103	=103
4AA	16c	2.r	16a
.	16B	.	16g#
.	16c	.	16a
.	16A	.	16e
8r	16d	.	16b
.	16G#	.	16e
4r	16A	.	16cc
.	16G#	.	16b
.	16A	.	16cc
.	16c	.	16e
8r	16B	.	16dd
.	16d	.	16e
=104	=104	=104	=104
8E	8G#	2.r	16ee
.	.	.	16ff
8F#	8r	.	16ee
.	.	.	16dd
8G#	8r	.	16cc
.	.	.	16b
8A	16e	.	16cc
.	16f	.	16dd
8AA	16e	.	16cc
.	16d	.	16b
8A	16e	.	16cc
.	16c	.	16a
=105	=105	=105	=105
8D	16a	2.r	16ff
.	16b	.	16gg
8E	16a	.	16ff
.	16g	.	16ee
8F	16f	.	16dd
.	16e	.	16cc
8G	4.d	.	16b
.	.	.	16cc
8GG	.	.	16b
.	.	.	16a
16G	.	.	16b
16A	.	.	16g
=106	=106	=106	=106
8B	[4.d	2.r	16gg
.	.	.	16aa
8A	.	.	16gg
.	.	.	16ff
8G	.	.	16ee
.	.	.	16dd
8c	16d]	.	16ee
.	16c	.	16ff
8C	16d	.	16ee
.	16e	.	16dd
8E	16f#	.	16cc
.	16g#	.	16b
=107	=107	=107	=107
[4.A	16a	2.r	16cc
.	16f	.	16dd
.	16e	.	16cc
.	16d	.	16b
.	16c	.	16a
.	16B	.	16g#
4.A_	4.c	.	16a
.	.	.	16b
.	.	.	16a
.	.	.	16g
.	.	.	16f#
.	.	.	16e
=108	=108	=108	=108
8.A]	4.B	2.r	16d#
.	.	.	16f#
.	.	.	[4b
16G	.	.	.
16A	.	.	.
16F#	.	.	.
8.G	4.B	.	16b]
.	.	.	16e
.	.	.	[4ee
16F#	.	.	.
16G	.	.	.
16E	.	.	.
=109	=109	=109	=109
8.c	8e	2.r	16ee]
.	.	.	16a
.	8c	.	16aa
16B	.	.	16gg
16c	[8a	.	16ff#
16A	.	.	16ee
16B	8a]	.	[4.dd#
16A	.	.	.
16B	8f#	.	.
16G	.	.	.
16A	8d#	.	.
16F#	.	.	.
=110	=110	=110	=110
16G	8B	2.r	8dd#]
16F#	.	.	.
16G	8b	.	8ee
16E	.	.	.
16F#	8a	.	[8dd
16D	.	.	.
16E	4g	.	8dd]
16D	.	.	.
16E	.	.	8cc
16C	.	.	.
16D	8f#	.	[8b
16BB	.	.	.
=111	=111	=111	=111
16C	4e	2.r	8b]
16BB	.	.	.
16C	.	.	8a
16AA	.	.	.
16BB	8d	.	[8g
16GG	.	.	.
4AA	16c	.	8g]
.	16B	.	.
.	16c	.	8f
.	16A	.	.
8GG	16B	.	8e
.	16G	.	.
=112	=112	=112	=112
8FF#	[4A	2.r	16d#
.	.	.	16f#
8EE	.	.	16a
.	.	.	16cc
8DD#	16A]	.	[8b
.	16a	.	.
8EE	16g	.	16b]
.	16f#	.	16a
4BB	16e	.	8g
.	16B	.	.
.	16d#	.	8f#
.	16A	.	.
=113	=113	=113	=113
4EE	4G	16e	8e
.	.	16f#	.
.	.	16g	8b
.	.	16f#	.
8r	8r	16g	[8ee
.	.	16e	.
4BB	4r	16f#	8ee]
.	.	16B	.
.	.	16d#	16dd#
.	.	16f#	16cc#
8r	8r	16b	8dd#
.	.	16f#	.
=114	=114	=114	=114
4E	2.r	8g	16ee
.	.	.	16ff#
.	.	8B	16gg
.	.	.	16ff#
8r	.	[8e	16gg
.	.	.	16ee
4B	.	8e]	16ff#
.	.	.	16b
.	.	16d#	16dd#
.	.	16c#	16ff#
8r	.	8d#	16aa
.	.	.	16ff#
=115	=115	=115	=115
4E	16E	8e	4gg
.	16F#	.	.
.	16G	8b	.
.	16F#	.	.
8r	16G	[8ee	8bb
.	16E	.	.
4BB	16F#	8ee]	8aa
.	16BB	.	.
.	16D#	16dd#	4ff#
.	16F#	16cc#	.
8r	16B	8dd#	.
.	16F#	.	.
=116	=116	=116	=116
4EE	8G	16ee	[4.ee
.	.	16e	.
.	8E	16g	.
.	.	16b	.
8r	[8G	16ee	.
.	.	16b	.
4AA	8G]	16cc	4.ee]
.	.	16b	.
.	8F#	16cc	.
.	.	16a	.
8r	8E	16cc	.
.	.	16g	.
=117	=117	=117	=117
4DD	8F#	16cc	[4.dd
.	.	16a	.
.	8D	16cc	.
.	.	16f#	.
8r	[8F#	16cc	.
.	.	16d	.
4GG	8F#]	16b	4.dd]
.	.	16a	.
.	8E	16b	.
.	.	16g	.
8r	8D	16b	.
.	.	16f#	.
=118	=118	=118	=118
4CC	8E	16b	[4.cc
.	.	16g	.
.	8C	16b	.
.	.	16e	.
8r	[8E	16b	.
.	.	16c	.
4FF#	8E]	16a	4.cc]
.	.	16g	.
.	8D#	16a	.
.	.	16f#	.
8r	8E	16a	.
.	.	16e	.
=119	=119	=119	=119
4.BB	8D#	16a	[4.b
.	.	16f#	.
.	8BB	16a	.
.	.	16d#	.
.	8D#	16a	.
.	.	16B	.
16G	8E	8g	8b]
16F#	.	.	.
16G	8G	8e	8g
16E	.	.	.
16G	8B	8g	8ee
16D	.	.	.
=120	=120	=120	=120
16G	8A	8e	8cc#
16E	.	.	.
16G	8E	8c#	8a
16C#	.	.	.
16G	[8A	8e	8cc#
16AA	.	.	.
16F	8A]	8f	8dd
16E	.	.	.
16F	8F	8d	8a
16D	.	.	.
16F	8A	8f	8dd
16C	.	.	.
=121	=121	=121	=121
16F	8G	8d	8b
16D	.	.	.
16F	8D	8B	8g
16BB	.	.	.
16F	[8G	8d	8b
16GG	.	.	.
16E	8G]	8e	8cc
16D	.	.	.
16E	8c	8g	8ee
16C	.	.	.
16E	8C	8e	8cc
16BB	.	.	.
=122	=122	=122	=122
16E	[4.F	8c	8a
16C	.	.	.
16E	.	8A	8f
16AA	.	.	.
16E	.	8c	8a
16FF	.	.	.
16D	8F]	8d	8b
16C	.	.	.
16D	8B	8f	8dd
16BB	.	.	.
16D	8BB	8d	8b
16AA	.	.	.
=123	=123	=123	=123
16D	[4.E	8B	8g#
16BB	.	.	.
16D	.	8G#	8e
16GG#	.	.	.
16D	.	8B	8g#
16EE	.	.	.
4C	16E]	4c	[4.a
.	16F#	.	.
.	16G	.	.
.	16A	.	.
8r	16B	8r	.
.	16c	.	.
=124	=124	=124	=124
4C	4F#	4d	16a]
.	.	.	16b
.	.	.	16cc
.	.	.	16dd
8r	8r	8r	16ee
.	.	.	16ff
8BB	8r	8r	16g#
.	.	.	16a
8B	8d	8g#	16b
.	.	.	16cc
8A	8c	8a	16dd
.	.	.	16ee
=125	=125	=125	=125
4G#	4B	4b	16ff
.	.	.	16ee
.	.	.	16dd
.	.	.	16ff
8r	8r	8r	16ee
.	.	.	16dd
8A	4c	8e	16cc
.	.	.	16ee
8F	.	8a	16dd
.	.	.	16cc
8D	8d	[8f	16b
.	.	.	16a
=126	=126	=126	=126
4E	4B	16f]	4.g#M
.	.	16e	.
.	.	16d	.
.	.	16f	.
8r	8r	16e	.
.	.	16d	.
4r	4A	16c	4.aM
.	.	16e	.
.	.	16d	.
.	.	16c	.
8r	8r	16B	.
.	.	16A	.
=127	=127	=127	=127
4EE	16F	4G#	4.bM
.	16E	.	.
.	16D	.	.
.	16F	.	.
8r	16E	8r	.
.	16D	.	.
4r	16C	4a	4.ccM
.	16E	.	.
.	16D	.	.
.	16C	.	.
8r	16BB	8r	.
.	16AA	.	.
=128	=128	=128	=128
8r	16GG#	[4.b	[4.dd
.	16BB	.	.
8EE	16E	.	.
.	16F#	.	.
8FF#	16G#	.	.
.	16A	.	.
8GG#	16B	4.b_	4.dd]
.	16c	.	.
8FF#	16d	.	.
.	16e	.	.
8EE	16f#	.	.
.	16g#	.	.
=129	=129	=129	=129
8r	16a	4.b]	[4.cc
.	16g#	.	.
8AA	16a	.	.
.	16f	.	.
8BB	16e	.	.
.	16d	.	.
8C	16e	[4.a	4.cc]
.	16d	.	.
8BB	16c	.	.
.	16e	.	.
8AA	16d	.	.
.	16c	.	.
=130	=130	=130	=130
8r	16d	8a]	[4.b
.	16c	.	.
8E	16B	8g#	.
.	16A	.	.
8F#	16G#	8a	.
.	16F#	.	.
8G#	16E	[4.b	8b]
.	16d	.	.
8F#	16c	.	8cc
.	16B	.	.
8E	16A	.	8dd
.	16G#	.	.
=131	=131	=131	=131
[4.A	16A	8b]	8cc
.	16B	.	.
.	16c	16a	8dd
.	16B	16g#	.
.	16c	8a	8ee
.	16A	.	.
8A]	8B	8dd	8ff
4G#	16E	[4b	8ee
.	16B	.	.
.	16e	.	8dd
.	16B	.	.
=132	=132	=132	=132
16A	8c	8b]	[4.cc
16AA	.	.	.
16C	8A	8e	.
16BB	.	.	.
16C	8e	[8a	.
16AA	.	.	.
4D	16f	4.a]	8cc]
.	16e	.	.
.	16f	.	8aa
.	16d	.	.
8r	16f	.	8cc
.	16c	.	.
=133	=133	=133	=133
8GG	16f	[4.g	4.b
.	16d	.	.
8AA	16f	.	.
.	16B	.	.
8BB	16f	.	.
.	16G	.	.
4C	16e	4.g]	8b-
.	16d	.	.
.	16e	.	8gg
.	16c	.	.
8r	16e	.	8b-
.	16B-	.	.
=134	=134	=134	=134
8FF	16e	[4.f	[4.a
.	16c	.	.
8GG	16e	.	.
.	16A	.	.
8AA	16e	.	.
.	16F	.	.
8BB-	16d	4.f]	8a]
.	16c	.	.
8C	16d	.	8ff
.	16B-	.	.
8D	16d	.	8a
.	16A	.	.
=135	=135	=135	=135
4EE	16d	4.e	8g#
.	16B	.	.
.	16d	.	8ee
.	16G#	.	.
8r	16d	.	8g#
.	16E	.	.
4r	16c	4e	8a
.	16B	.	.
.	16c	.	8ee
.	16A	.	.
8r	16c	8f#	8a
.	16E	.	.
=136	=136	=136	=136
4EE	16B	4g#	8b
.	16A	.	.
.	16B	.	8ee
.	16G#	.	.
8r	16B	8g#	8b
.	16E	.	.
4r	16A	4a	8cc
.	16G#	.	.
.	16A	.	8ff#
.	16F#	.	.
8r	16A	8a	8cc
.	16D#	.	.
=137	=137	=137	=137
4EE	16G#	8b	8dd
.	16F#	.	.
.	16G#	8dd	8ff
.	16E	.	.
8r	16F#	8cc	8ee
.	16G#	.	.
4r	16A	8a	8cc
.	16G#	.	.
.	16A	8cc	8ee
.	16E	.	.
8r	16G#	8a	8cc
.	16A	.	.
=138	=138	=138	=138
4EE	16B	4g#	8b
.	16A	.	.
.	16B	.	8dd
.	16E	.	.
8r	16A	8g#	8b
.	16B	.	.
4r	16c	4f#	8a
.	16B	.	.
.	16c	.	8cc
.	16E	.	.
8r	16B	8f#	8a
.	16c	.	.
=139	=139	=139	=139
16r	4d	4f	4g#
16BB	.	.	.
16D	.	.	.
16C	.	.	.
16D	8r	8r	8r
16BB	.	.	.
16G#	4B 4d	4e	4b
16E	.	.	.
16F	.	.	.
16E	.	.	.
16F	8r	8r	8r
16D	.	.	.
=140	=140	=140	=140
16B	4B 4d	4g#	4b 4dd
16F#	.	.	.
16G#	.	.	.
16F#	.	.	.
16G#	8r	8r	8r
16E	.	.	.
16d	4B 4d	4g#	4b 4dd 4ff
16A	.	.	.
16B	.	.	.
16A	.	.	.
16B	8r	8r	8r
16G#	.	.	.
=141	=141	=141	=141
16c	4c 4e	4a	4cc 4ee
16G#	.	.	.
16A	.	.	.
16E	.	.	.
16F	8r	8r	8r
16D#	.	.	.
16E	4r	4r	4r
16G#	.	.	.
16A	.	.	.
16E	.	.	.
16F	8r	8r	8r
16D#	.	.	.
=142	=142	=142	=142
16E	2.r	2.r	2.r
16G#	.	.	.
16A	.	.	.
16E	.	.	.
16F	.	.	.
16D#	.	.	.
16E	.	.	.
16D#	.	.	.
16E	.	.	.
16BB	.	.	.
16C	.	.	.
16GG#	.	.	.
=143	=143	=143	=143
16AA	2.r	2.r	2.r
16D#	.	.	.
16E	.	.	.
16BB	.	.	.
16C	.	.	.
16GG#	.	.	.
16AA	.	.	.
16D#	.	.	.
16E	.	.	.
16BB	.	.	.
16C	.	.	.
16GG#	.	.	.
=144	=144	=144	=144
16AA	2.r	2.r	2.r
16C	.	.	.
16C	.	.	.
16E	.	.	.
16E	.	.	.
16A	.	.	.
16C	.	.	.
16E	.	.	.
16E	.	.	.
16A	.	.	.
16A	.	.	.
16c	.	.	.
=145	=145	=145	=145
16G#	2.r	2.r	2.r
16A	.	.	.
16E	.	.	.
16F	.	.	.
16D#	.	.	.
16E	.	.	.
16BB	.	.	.
16C	.	.	.
16GG#	.	.	.
16AA	.	.	.
16EE	.	.	.
16FF#	.	.	.
=146	=146	=146	=146
4DD#	2.r	2.r	32r
.	.	.	32aa
.	.	.	32bb
.	.	.	32ccc
.	.	.	32bb
.	.	.	32aa
.	.	.	32gg#
.	.	.	32aa
8r	.	.	32ff#
.	.	.	32aa
.	.	.	32bb
.	.	.	32ccc
4r	.	.	32dd#
.	.	.	32aa
.	.	.	32bb
.	.	.	32ccc
.	.	.	32bb
.	.	.	32aa
.	.	.	32gg#
.	.	.	32aa
8r	.	.	32dd#
.	.	.	32ff#
.	.	.	32gg
.	.	.	32aa
=147	=147	=147	=147
2.r	2.r	2.r	32cc
.	.	.	32aa
.	.	.	32bb
.	.	.	32ccc
.	.	.	32bb
.	.	.	32aa
.	.	.	32gg#
.	.	.	32aa
.	.	.	32cc
.	.	.	32dd#
.	.	.	32ee
.	.	.	32ff#
.	.	.	32a
.	.	.	32aa
.	.	.	32bb
.	.	.	32ccc
.	.	.	32bb
.	.	.	32aa
.	.	.	32gg#
.	.	.	32aa
.	.	.	32ff#
.	.	.	32aa
.	.	.	32bb
.	.	.	32ccc
=148	=148	=148	=148
4r	2.r	2.r	32dd#
.	.	.	32ff#
.	.	.	32gg
.	.	.	32aa
.	.	.	32cc
.	.	.	32dd#
.	.	.	32ee
.	.	.	32ff#
8r	.	.	32a
.	.	.	32cc
.	.	.	32b
.	.	.	32a
4EE	.	.	32g#
.	.	.	32b
.	.	.	32cc
.	.	.	32dd
.	.	.	32cc
.	.	.	32b
.	.	.	32a
.	.	.	32b
8r	.	.	32g#
.	.	.	32b
.	.	.	32cc
.	.	.	32dd
=149	=149	=149	=149
2.r	2.r	4r	32f
.	.	.	32b
.	.	.	32cc
.	.	.	32dd
.	.	.	32cc
.	.	.	32b
.	.	.	32a
.	.	.	32b
.	.	8f 8f	32r
.	.	.	32b
.	.	.	32cc
.	.	.	32dd
.	.	4d 4f 4g#	32r
.	.	.	32b
.	.	.	32cc
.	.	.	32dd
.	.	.	32cc
.	.	.	32b
.	.	.	32a
.	.	.	32b
.	.	8d 8f 8g#	32r
.	.	.	32b
.	.	.	32cc
.	.	.	32dd
=150	=150	=150	=150
2.r	4B	4d 4f	32r
.	.	.	32b
.	.	.	32cc
.	.	.	32dd
.	.	.	32cc
.	.	.	32b
.	.	.	32a
.	.	.	32b
.	8B	8d 8f	32r
.	.	.	32b
.	.	.	32cc
.	.	.	32dd
.	4r	4r	48G#
.	.	.	48B
.	.	.	48e
.	.	.	48d#
.	.	.	48b
.	.	.	48f
.	.	.	48G#
.	.	.	48B
.	.	.	48e
.	.	.	48d#
.	.	.	48b
.	.	.	48f
.	8r	8r	48G#
.	.	.	48B
.	.	.	48e
.	.	.	48d#
.	.	.	48b
.	.	.	48f
=151	=151	=151	=151
4EE	8r	8r	8r
.	8C 8E 8A	8c	8e 8a
8EE	8BB 8D 8E	8B	8d 8e 8g#
4AA	4AA 4E 4A	4c	4e 4a
8r	8r	8r	8r
==	==	==	==
*-	*-	*-	*-
!!!ENC: Peter van Kranenburg (peter@musical-style-recognition.net)
!!!END: 2006-11-9
